X: 1
T: Mary Ellen's
R: reel
M: 4/4
L: 1/8
K: Amaj
A,B, CE2< F2A|FE CB, CA, A,2|F2 AF FE CE|EF AB c2 BA|
A,B, CE2< F2A|FE CB, CA, A,2|CE EC EF AB|c2 BA F2 AF|
A,B, CE2< F2A|FE CB, CA, A,2|F2 AF FE CE|EF AB c2 BA|
c/B/A FE F2 AF|FE CB, CA, A,B,|CE EC EF AB|c2 BA2< F2G||
A2>F2 GE EE|FA GE FE CE|A2>F2 GE EE|FA GE2< F2G|
A2 BA GE EE|FA GE FE CB,|A,2>B,2 CE FG|AB GE2< F2G|
AF F2 GE E2|FA GE FE CE|A2 BA GE E2|FA GE2< F2G|
A2 BA GE EE|FA GE FE CB,|A,2>B,2 CE EE|F2 GE FE CB,||

